src/shared/assets/swap.svg

<svg width="28" height="28" viewBox="0 0 28 28" fill="none" xmlns="http://www.w3.org/2000/svg">
<g clip-path="url(#clip0_413_843)">
<path d="M2.3335 12.5417V14H5.25016V12.5417V9.62504H17.769L16.6115 10.7826L15.5815 11.8125L17.646 13.877L18.6759 12.847L22.3218 9.20121L23.3563 8.16671L22.3263 7.13676L18.6805 3.49093L17.646 2.45642L15.5815 4.52087L16.6115 5.55082L17.769 6.70837H3.79183H2.3335V8.16671V12.5417ZM25.6668 15.4584V14H22.7502V15.4584V18.375H10.2313L11.3888 17.2175L12.4188 16.1875L10.3543 14.1231L9.32438 15.153L5.67855 18.7989L4.64404 19.8334L5.67399 20.8633L9.31982 24.5092L10.3543 25.5437L12.4188 23.4792L11.3888 22.4493L10.2313 21.2917H24.2085H25.6668V19.8334V15.4584Z" fill="white"/>
</g>
<defs>
<clipPath id="clip0_413_843">
<rect width="23.3333" height="23.3333" fill="white" transform="translate(2.3335 2.33337)"/>
</clipPath>
</defs>
</svg>

<svg xmlns="http://www.w3.org/2000/svg" fill="currentColor" viewBox="0 0 28 28">
  <path d="M2.333 12.542V14H5.25V9.625h12.519l-1.158 1.158-1.03 1.03 2.065 2.064 1.03-1.03L22.322 9.2l1.034-1.034-1.03-1.03L18.68 3.49l-1.034-1.035-2.065 2.065 1.03 1.03 1.158 1.157H2.333v5.834Zm23.334 2.916V14H22.75v4.375H10.231l1.158-1.158 1.03-1.03-2.065-2.064-1.03 1.03-3.646 3.646-1.034 1.034 1.03 1.03L9.32 24.51l1.034 1.035 2.065-2.065-1.03-1.03-1.158-1.157h15.436v-5.834Z"/>
</svg>
